X: 17845
T: Horizonto
R: jig
M: 6/8
K: Eminor
~b3 abg|afg efd|B2e efg|f2d def|
g3 gfe|f2d def|gfe fed|Bcd e3:|
~c3 efg|~c3 efg|~B3 efg|~B3 efg|
~c3 efg|~c3 efg|bc'b abg|afg efd|
~c3 efg|~c3 efg|~B3 efg|~B3 efg|
~c3 efg|~c3 efg|~^c3 efg|~^c3 efg|
c'2b2ag|f3 fga|b2a2gf|e3efg|
a2g2fe|^d3 ^def|g2^g2a2|b4ab|
c'2d'2c'2|f3 fga|b2c'2b2|e3efg|
a2g2fe|^d3 ^def|g2e2ed|e2 z z3||

